SVG-Logos/Frameworks-Languages-IDEs/Process/prplx master/meteor.svg

<?xml version="1.0" encoding="UTF-8"?>
<svg width="272px" height="66px" viewBox="0 0 272 66" version="1.1" xmlns="http://www.w3.org/2000/svg" xmlns:xlink="http://www.w3.org/1999/xlink">
    <!-- Generator: Sketch 46.2 (44496) - http://www.bohemiancoding.com/sketch -->
    <title>meteor</title>
    <desc>Created with Sketch.</desc>
    <defs></defs>
    <g id="Page-1" stroke="none" stroke-width="1" fill="none" fill-rule="evenodd">
        <g id="Logos" transform="translate(-31.000000, -534.000000)">
            <g id="meteor" transform="translate(31.000000, 534.000000)">
                <path d="M272,64.9987633 L261.6385,64.9987633 L252.895643,51.7735951 L246.095643,51.7735951 L246.095643,64.9987633 L237.028571,64.9987633 L237.028571,24 L259.047214,24 C259.047214,24 270.912,24.4748892 270.912,37.8323832 C270.912,47.2943022 262.285714,50.7817694 262.285714,50.7817694 L272,64.9987633 Z M256.690286,31.5487588 L245.936571,31.5487588 L245.936571,43.5347631 L257.667786,43.5347631 C257.667786,43.5347631 262.152143,43.5335264 262.152143,37.5405242 C262.152143,31.319971 256.690286,31.5487588 256.690286,31.5487588 Z M136.647214,24 L167.085714,24 L167.085714,31.9296595 L145.714286,31.9296595 L145.714286,40.5320785 L164.171429,40.5320785 L164.171429,48.4679215 L145.714286,48.4679215 L145.714286,57.0641571 L167.085714,57.0641571 L167.085714,64.9987633 L136.647214,64.9987633 L136.647214,24 Z M113.657143,64.9987633 L104.590071,64.9987633 L104.590071,31.9358429 L92.6099286,31.9358429 L92.6099286,24 L125.6385,24 L125.6385,31.9358429 L113.657143,31.9358429 L113.657143,64.9987633 Z M51.1615,24 L81.6,24 L81.6,31.9296595 L60.2285714,31.9296595 L60.2285714,40.5320785 L78.6857143,40.5320785 L78.6857143,48.4679215 L60.2285714,48.4679215 L60.2285714,57.0641571 L81.6,57.0641571 L81.6,64.9987633 L51.1615,64.9987633 L51.1615,24 Z M31.0857143,39.2088197 L20.0697143,55.7408983 L9.061,39.2088197 L9.061,65 L0,65 L0,24 L9.061,24 L20.0697143,40.8622749 L31.0857143,24 L40.1527857,24 L40.1527857,65 L31.0857143,65 L31.0857143,39.2088197 Z" id="Shape" fill="#FFFFFF"></path>
                <path d="M227.471723,43.636604 C226.442513,44.7661485 225.097551,43.7979675 225.097551,43.7979675 L195.026306,10.7343405 L227.70914,41.3787374 C227.70914,41.3787374 228.500933,42.5082819 227.471723,43.636604 Z M224.109316,32.9230451 L210.48012,17.89179 L225.401252,31.7886108 C225.401252,31.7886108 225.79293,32.317932 225.283146,32.8472532 C224.774567,33.3753519 224.109316,32.9230451 224.109316,32.9230451 Z M226.337664,52.8648851 C224.864954,54.4821876 222.940308,53.0971508 222.940308,53.0971508 L179.896681,5.77119026 L226.67752,49.6339477 C226.67752,49.6339477 227.810374,51.2500276 226.337664,52.8648851 Z M221.920739,60.8303746 C220.448029,62.4464546 218.522177,61.0614178 218.522177,61.0614178 L162,0 L222.260595,57.5982147 C222.260595,57.5982147 223.392244,59.2142946 221.920739,60.8303746 Z M213.765396,65.2165281 C212.292686,66.8326081 210.366835,65.4475713 210.366835,65.4475713 L167.324413,18.1216108 L214.105252,61.9843682 C214.105252,61.9843682 215.236901,63.6004481 213.765396,65.2165281 Z M203.911978,65.3375507 C202.882768,66.4658728 201.537805,65.4989142 201.537805,65.4989142 L171.466561,32.4352873 L204.149395,63.0796841 C204.149395,63.0796841 204.939983,64.2092286 203.911978,65.3375507 Z M193.794629,62.6273773 C193.28605,63.1566985 192.620799,62.7031692 192.620799,62.7031692 L178.991603,47.6719141 L193.912735,61.5687349 C193.912735,61.5687349 194.303208,62.0980561 193.794629,62.6273773 Z" id="Shape" fill="#DE4F4F"></path>
            </g>
        </g>
    </g>
</svg>

<svg xmlns="http://www.w3.org/2000/svg" viewBox="0 0 272 66"><g fill="none" fill-rule="evenodd"><path fill="#FFF" d="M272 64.999h-10.361l-8.743-13.225h-6.8v13.225h-9.067V24h22.018s11.865.475 11.865 13.832c0 9.462-8.626 12.95-8.626 12.95L272 64.999Zm-15.31-33.45h-10.753v11.986h11.73s4.485-.001 4.485-5.994c0-6.221-5.462-5.992-5.462-5.992ZM136.647 24h30.439v7.93h-21.372v8.602h18.457v7.936h-18.457v8.596h21.372V65h-30.439V24Zm-22.99 40.999h-9.067V31.936H92.61V24h33.028v7.936h-11.98v33.063ZM51.162 24H81.6v7.93H60.229v8.602h18.457v7.936H60.229v8.596H81.6V65H51.162V24ZM31.085 39.209 20.07 55.74 9.06 39.209V65H0V24h9.061L20.07 40.862 31.086 24h9.067v41h-9.067V39.209Z"/><path fill="#DE4F4F" d="M227.472 43.637c-1.03 1.13-2.374.161-2.374.161l-30.072-33.064L227.71 41.38s.792 1.13-.237 2.258Zm-3.363-10.714L210.48 17.892l14.921 13.897s.392.529-.118 1.058c-.508.528-1.174.076-1.174.076Zm2.229 19.942c-1.473 1.617-3.398.232-3.398.232L179.897 5.771l46.78 43.863s1.133 1.616-.34 3.23Zm-4.417 7.965c-1.473 1.616-3.399.231-3.399.231L162 0l60.26 57.598s1.132 1.616-.34 3.232Zm-8.156 4.387c-1.472 1.616-3.398.23-3.398.23l-43.043-47.325 46.781 43.862s1.132 1.616-.34 3.233Zm-9.853.12c-1.03 1.129-2.374.162-2.374.162l-30.071-33.064 32.682 30.645s.791 1.13-.237 2.258Zm-10.117-2.71c-.509.53-1.174.076-1.174.076l-13.63-15.031 14.922 13.897s.39.53-.118 1.058Z"/></g></svg>
